packages/bezier-icons/icons/pin-filled.svg

<svg width="24" height="24" viewBox="0 0 24 24" fill="none" xmlns="http://www.w3.org/2000/svg">
<path fill-rule="evenodd" clip-rule="evenodd" d="M19.5612 10.901C20.9932 10.4499 21.4361 8.64073 20.3745 7.57915L16.3821 3.58672C15.3243 2.52893 13.5222 2.96434 13.064 4.38839L12.5016 6.13633C12.4044 6.43864 12.2365 6.71345 12.012 6.93801L10.4394 8.51054C10.0644 8.88561 9.55566 9.09632 9.02523 9.09632H5.25096C4.68016 9.09632 4.13656 9.34021 3.75706 9.76657L3.65818 9.87764C3.30597 10.2733 3.32344 10.875 3.69803 11.2496L7.50583 15.0574L2.29286 20.2704C1.90238 20.6609 1.90238 21.294 2.29286 21.6845C2.68332 22.0749 3.31637 22.0749 3.70686 21.6845L8.91983 16.4724L12.7641 20.3167C13.1637 20.7163 13.8149 20.7057 14.2012 20.2931L14.3135 20.1731C14.6606 19.8025 14.8537 19.3138 14.8537 18.8061V14.9248C14.8537 14.3943 15.0644 13.8856 15.4394 13.5105L17.0074 11.9426C17.2349 11.7151 17.5139 11.5459 17.8207 11.4492L19.5612 10.901Z" fill="#313234"/>
</svg>

<svg xmlns="http://www.w3.org/2000/svg" width="24" height="24" fill="none" viewBox="0 0 24 24"><path fill="#313234" fill-rule="evenodd" d="M19.561 10.901c1.432-.451 1.875-2.26.814-3.322l-3.993-3.992c-1.058-1.058-2.86-.623-3.318.801l-.562 1.748a2 2 0 0 1-.49.802l-1.573 1.573a2 2 0 0 1-1.414.585H5.251a2 2 0 0 0-1.494.67l-.099.112a1 1 0 0 0 .04 1.372l3.808 3.807-5.213 5.213a1 1 0 0 0 1.414 1.415l5.213-5.213 3.844 3.845a1 1 0 0 0 1.437-.024l.112-.12a2 2 0 0 0 .54-1.367v-3.881a2 2 0 0 1 .586-1.415l1.568-1.567a2 2 0 0 1 .814-.494z" clip-rule="evenodd"/></svg>
